X: 34178
T: Reel Of Bogie, The
R: reel
M: 4/4
K: Adorian
(3Bcd|eA A2 ed (3Bcd|eAAF G2 (3Bcd|eA A2 ed (3Bcd|gedB A2 (3Bcd|
eA A2 edBd|eAAF G2 (3Bcd|e3 f g2 af|gedB A2:|
BA|G2 (3Bcd g3 e|dB B2 dBAB|G2 (3Bcd g3 e|dedB AcBA|
G2 (3Bcd g3e|dedB dega|bgag eaaf|gedB A2:|

